X: 262
T: Missa C op. 22 - Sanctus
C: Józef Elsner
L: 1/8
M: 3/4
N: Derived from pl-cz--iii-197--006_elsner-jozef--missa-c-op-22-sanctus.krn
V: 1 clef=treble
V: 2 clef=treble
V: 3 clef=treble
V: 4 clef=treble
V: 5 clef=treble
V: 6 clef=treble
V: 7 clef=bass
V: 8 clef=tenor
V: 9 clef=tenor
V: 10 clef=bass
V: 11 clef=bass
V: 12 clef=bass
K: C
[V:1] z6 | 
[V:2] z6 | 
[V:3] z6 | 
[V:4] x6 | 
[V:5] z6 | 
[V:6] z6 | 
[V:7] x6 | 
[V:8] E6 | 
[V:9] C6 | 
[V:10] G,6 | 
[V:11] C,6 | 
[V:12] z6 | 
[V:1] z2z> GG3/G/ | 
[V:2] z2z> EE3/E/ | 
[V:3] z2z> cc3/c/ | 
[V:4] x6 | 
[V:5] z2z> cc3/c/ | 
[V:6] z2z> CC3/C/ | 
[V:7] x6 | 
[V:8] E4z2 | 
[V:9] C4z2 | 
[V:10] G,4z2 | 
[V:11] C,4z2 | 
[V:12] z2z> C,C,3/C,/ | 
[V:1] A4z2 | 
[V:2] F4z2 | 
[V:3] c4z2 | 
[V:4] x6 | 
[V:5] c4z2 | 
[V:6] C4z2 | 
[V:7] x6 | 
[V:8] F6 | 
[V:9] C6 | 
[V:10] A,6 | 
[V:11] F,6 | 
[V:12] F,4z2 | 
[V:1] z2z> AA3/A/ | 
[V:2] z2z> FF3/F/ | 
[V:3] z2z> cc3/c/ | 
[V:4] x6 | 
[V:5] z12 | 
[V:6] z12 | 
[V:7] x6 | 
[V:8] F4z2 | 
[V:9] C4z2 | 
[V:10] A,4z2 | 
[V:11] F,4z2 | 
[V:12] z2z> F,F,3/F,/ | 
[V:1] A4z2 | 
[V:2] F4z2 | 
[V:3] d4z2 | 
[V:4] x6 | 
[V:5]  | 
[V:6]  | 
[V:7] x6 | 
[V:8] F6 | 
[V:9] D4C2 | 
[V:10] A,6 | 
[V:11] D,6 | 
[V:12] D,4z2 | 
[V:1] z2z> AA3/A/ | 
[V:2] z2z> FF3/F/ | 
[V:3] z2z> dd3/d/ | 
[V:4] x6 | 
[V:5] z6 | 
[V:6] z6 | 
[V:7] x6 | 
[V:8] F4z2 | 
[V:9] D4z2 | 
[V:10] A,4z2 | 
[V:11] D,4z2 | 
[V:12] z2z> D,D,3/D,/ | 
[V:1] G2z2z2 | 
[V:2] F2z2z2 | 
[V:3] d2z2z2 | 
[V:4] x6 | 
[V:5] d2z2z2 | 
[V:6] G2z2z2 | 
[V:7] x6 | 
[V:8] D2>^C2D2 | 
[V:9] B,2>^A,2B,2 | 
[V:10] G,2>G,2G,2 | 
[V:11] G,2>G,2G,2 | 
[V:12] G,2z2z2 | 
[V:1] G2z2z2 | 
[V:2] C2z2z2 | 
[V:3] e2z2z2 | 
[V:4] x6 | 
[V:5] e2z2z2 | 
[V:6] c2z2z2 | 
[V:7] x6 | 
[V:8] E2>^D2E2 | 
[V:9] C4C2 | 
[V:10] G,2>^F,2G,2 | 
[V:11] C,4C,2 | 
[V:12] C,2z2z2 | 
[V:1] z2G2G2 | 
[V:2] z2F2E2 | 
[V:3] z2d2e2 | 
[V:4] x6 | 
[V:5] z2d2e2 | 
[V:6] z2G2c2 | 
[V:7] x6 | 
[V:8] F4E2 | 
[V:9] D4C2 | 
[V:10] G,6 | 
[V:11] B,,4C,2 | 
[V:12] z2B,,2C,2 | 
[V:1] G2z2z2 | 
[V:2] G2z2z2 | 
[V:3] d2z2z2 | 
[V:4] x6 | 
[V:5] d2z2z2 | 
[V:6] G2z2z2 | 
[V:7] x6 | 
[V:8] D2^D2E2 | 
[V:9] B,4C2 | 
[V:10] G,2>F,2E,2 | 
[V:11] G,,6 | 
[V:12] G,,2z2z2 | 
[V:1] G2z2z2 | 
[V:2] G2z2z2 | 
[V:3] d2z2z2 | 
[V:4] x6 | 
[V:5] z2d2d2 | 
[V:6] z2G2G2 | 
[V:7] x6 | 
[V:8] F6 | 
[V:9] B,2>^A,2B,2 | 
[V:10] D,2>^C,2D,2 | 
[V:11] G,,6 | 
[V:12] G,,2z2z2 | 
[V:1] G6 | 
[V:2] G6- | 
[V:3] d6- | 
[V:4] x6 | 
[V:5] x6 | 
[V:6] x6 | 
[V:7] x6 | 
[V:8] F4D2 | 
[V:9] B,4B,2 | 
[V:10] D,4F,2 | 
[V:11] G,,6 | 
[V:12] G,,6- | 
[V:1] G4!fermata!z2 ||  
[V:2] G4!fermata!z2 ||  
[V:3] d4!fermata!z2 ||  
[V:4] x6 ||  
[V:5] d4!fermata!z2 ||  
[V:6] G4!fermata!z2 ||  
[V:7] x6 ||  
[V:8] D4!fermata!z2 ||  
[V:9] B,4!fermata!z2 ||  
[V:10] F,4!fermata!z2 ||  
[V:11] G,,4!fermata!z2 ||  
[V:12] G,,4!fermata!z2 ||  
[V:1] [M:6/8]G2>-G2 z z | 
[V:2] [M:6/8]C2>C2 z z | 
[V:3] [M:6/8]c2>-c2 z z | 
[V:4] [M:6/8]x6 | 
[V:5] [M:6/8]C>EGc2z | 
[V:6] [M:6/8]C>EGE2z | 
[V:7] [M:6/8]x6 | 
[V:8] [M:6/8]C3-C> G, E, | 
[V:9] [M:6/8]z12 | 
[V:10] [M:6/8]C3C> G, E, | 
[V:11] [M:6/8]z12 | 
[V:12] [M:6/8]C,3-C,2z | 
[V:1] z6 | 
[V:2] z6 | 
[V:3] z6 | 
[V:4] x6 | 
[V:5] z6 | 
[V:6] z6 | 
[V:7] x6 | 
[V:8] C> G, E,C3 | 
[V:9]  | 
[V:10] C> G, E,C,3 | 
[V:11]  | 
[V:12] z6 | 
[V:1] G2>-G2 z z | 
[V:2] C2>C2 z z | 
[V:3] e2>e2 z z | 
[V:4] x6 | 
[V:5] C>EGc2z | 
[V:6] C>EGE2z | 
[V:7] x6 | 
[V:8] G,2zG3- | 
[V:9] E3-E> C G, | 
[V:10] C,2zC3- | 
[V:11] C3-C> G, E, | 
[V:12] C,3-C,2z | 
[V:1] z12 | 
[V:2] z12 | 
[V:3] z12 | 
[V:4] x6 | 
[V:5] z12 | 
[V:6] z12 | 
[V:7] x6 | 
[V:8] G6- | 
[V:9] E> C G,E3 | 
[V:10] C3G,3 | 
[V:11] C3-C> G, E, | 
[V:12] z12 | 
[V:1]  | 
[V:2]  | 
[V:3]  | 
[V:4] x6 | 
[V:5]  | 
[V:6]  | 
[V:7] x6 | 
[V:8] G> E CG3 | 
[V:9] C2zE3- | 
[V:10] E,2zC3- | 
[V:11] C,2zC,3- | 
[V:12]  | 
[V:1] G2zG2z | 
[V:2] E2zE2z | 
[V:3] c2zc2z | 
[V:4] x6 | 
[V:5] c2zc2z | 
[V:6] C2zC2z | 
[V:7] x6 | 
[V:8] G> E C G> E C | 
[V:9] E> C G, E> C G, | 
[V:10] C> G, E, C> G, G, | 
[V:11] C,2C,C,3 | 
[V:12] C,2zC,2z | 
[V:1] A6- | 
[V:2] F6- | 
[V:3] c6- | 
[V:4] x6 | 
[V:5] c6- | 
[V:6] C6- | 
[V:7] x6 | 
[V:8] [F6A6-] | 
[V:9] C6- | 
[V:10] A,6 | 
[V:11] [F,,6F,6] | 
[V:12] F,,6- | 
[V:1] A4z z | 
[V:2] F4z z | 
[V:3] c4z z | 
[V:4] x6 | 
[V:5] c4z2 | 
[V:6] C4z2 | 
[V:7] x6 | 
[V:8] [F4A4]z z | 
[V:9] C4z z | 
[V:10] A,4z z | 
[V:11] [F,,4F,4]F,2 | 
[V:12] F,,4z2 | 
[V:1] z24 | 
[V:2] z24 | 
[V:3] z24 | 
[V:4] x6 | 
[V:5] z24 | 
[V:6] z24 | 
[V:7] x6 | 
[V:8] z12 | 
[V:9] z6 | 
[V:10] z2z zF,2 | 
[V:11] E,>F, E, D,>E, D, | 
[V:12] z24 | 
[V:1]  | 
[V:2]  | 
[V:3]  | 
[V:4] x6 | 
[V:5]  | 
[V:6]  | 
[V:7] x6 | 
[V:8]  | 
[V:9] z2z zG,2 | 
[V:10] E,>F, E, D,>E, D, | 
[V:11] C,3B,,3 | 
[V:12]  | 
[V:1]  | 
[V:2]  | 
[V:3]  | 
[V:4] x6 | 
[V:5]  | 
[V:6]  | 
[V:7] x6 | 
[V:8] z2z zD2 | 
[V:9] G,>A, G, G,>A, B, | 
[V:10] E,3F,3 | 
[V:11] C,3G,,3 | 
[V:12]  | 
[V:1]  | 
[V:2]  | 
[V:3]  | 
[V:4] x6 | 
[V:5]  | 
[V:6]  | 
[V:7] x6 | 
[V:8] E>D C B,>A, B, | 
[V:9] C>G, E,G,2G, | 
[V:10] E,2z zF,2 | 
[V:11] C,2z zD,2 | 
[V:12]  | 
[V:1] z12 | 
[V:2] z12 | 
[V:3] z24 | 
[V:4] x6 | 
[V:5] z24 | 
[V:6] z24 | 
[V:7] x6 | 
[V:8] C C/ z/ z zD2 | 
[V:9] G, G,/ z/ z zB,2 | 
[V:10] E,>F, G, F,>G, F, | 
[V:11] C,>D, E, D,>E, D, | 
[V:12] z12 | 
[V:1]  | 
[V:2]  | 
[V:3]  | 
[V:4] x6 | 
[V:5]  | 
[V:6]  | 
[V:7] x6 | 
[V:8] E>D C B,>A, B, | 
[V:9] C>G, E,G,2G, | 
[V:10] E, E,/ z/ z zF,2 | 
[V:11] C, C,/ z/ z zD,2 | 
[V:12]  | 
[V:1] z6 | 
[V:2] z6 | 
[V:3]  | 
[V:4] x6 | 
[V:5]  | 
[V:6]  | 
[V:7] x6 | 
[V:8] C C/ z/ z zD2 | 
[V:9] G, E,/ z/ z zB,2 | 
[V:10] E,>F, G, F,>G, F, | 
[V:11] C,>D, E, D,>E, D, | 
[V:12] z6 | 
[V:1] z2z E>FG | 
[V:2] z2zC3 | 
[V:3]  | 
[V:4] x6 | 
[V:5]  | 
[V:6]  | 
[V:7] x6 | 
[V:8] G3-G>F E | 
[V:9] C>G, E,C2C | 
[V:10] E, E,/ z/ z E,>F, G, | 
[V:11] C, C,/ z/ z C,>D, E, | 
[V:12] z2z C,>D,E, | 
[V:1] A6 | 
[V:2] F6 | 
[V:3] z2zd3 | 
[V:4] x6 | 
[V:5] z6 | 
[V:6] z6 | 
[V:7] x6 | 
[V:8] E>D ^C D>E F | 
[V:9] A,3A,3 | 
[V:10] A,3A,3 | 
[V:11] F,3F,3 | 
[V:12] F,6 | 
[V:1] G z z G z z | 
[V:2] E z z G z z | 
[V:3] e z z d z z | 
[V:4] x6 | 
[V:5] z cc z dd | 
[V:6] z EE z GG | 
[V:7] x6 | 
[V:8] E3D2D | 
[V:9] C2>B,2 z B, | 
[V:10] G,6 | 
[V:11] G,6 | 
[V:12] G, z z G, z z | 
[V:1] G2zz2z | 
[V:2] E2zz2z | 
[V:3] c2zz2z | 
[V:4] x6 | 
[V:5] c2zz2z | 
[V:6] E2zz2z | 
[V:7] x6 | 
[V:8] E>D C B,>A, B, | 
[V:9] C>G, E,G,2G, | 
[V:10] G,2z zF,2 | 
[V:11] C,2z zD,2 | 
[V:12] C,2zz2z | 
[V:1] z12 | 
[V:2] z12 | 
[V:3] z24 | 
[V:4] x6 | 
[V:5] z24 | 
[V:6] z24 | 
[V:7] x6 | 
[V:8] C C/ z/ z zD2 | 
[V:9] G, G,/ z/ z xB,2 | 
[V:10] E,>F, G, F,>G, F, | 
[V:11] C,>D, E, D,>E, D, | 
[V:12] z12 | 
[V:1]  | 
[V:2]  | 
[V:3]  | 
[V:4] x6 | 
[V:5]  | 
[V:6]  | 
[V:7] x6 | 
[V:8] E>D C B,>A, B, | 
[V:9] C>G, E,G,2G, | 
[V:10] E, E,/ z/ z zF,2 | 
[V:11] C, C,/ z/ z zD,2 | 
[V:12]  | 
[V:1] z6 | 
[V:2] z6 | 
[V:3]  | 
[V:4] x6 | 
[V:5]  | 
[V:6]  | 
[V:7] x6 | 
[V:8] C C/ z/ z zD2 | 
[V:9] G, G,/ z/ z zB,2 | 
[V:10] E,>F, G, F,>G, F, | 
[V:11] C,>D, E, D,>E, D, | 
[V:12] z6 | 
[V:1] z2z E>FG | 
[V:2] z2zC3 | 
[V:3]  | 
[V:4] x6 | 
[V:5]  | 
[V:6]  | 
[V:7] x6 | 
[V:8] G3-G>F E | 
[V:9] C>G, E,C2C | 
[V:10] E, E,/ z/ z E,>F,G, | 
[V:11] C, C,/ z/ z C,>D,E, | 
[V:12] z2z C,>D,E, | 
[V:1] A6 | 
[V:2] F6 | 
[V:3] z2zd3 | 
[V:4] x6 | 
[V:5] z6 | 
[V:6] z6 | 
[V:7] x6 | 
[V:8] E>D ^C D>E F | 
[V:9] A,3A,3 | 
[V:10] A,3A,3 | 
[V:11] F,3F,3 | 
[V:12] F,6 | 
[V:1] G z z G z z | 
[V:2] E z z E z z | 
[V:3] e z z e z z | 
[V:4] x6 | 
[V:5] z cc z cc | 
[V:6] z EE z EE | 
[V:7] x6 | 
[V:8] E>CG,E3 | 
[V:9] C>G,E,C3 | 
[V:10] G,6 | 
[V:11] G,3-G,>E,C, | 
[V:12] G, z z F, z z | 
[V:1] G6 | 
[V:2] E6 | 
[V:3] e6 | 
[V:4] x6 | 
[V:5] c2zc2z | 
[V:6] E2zE2z | 
[V:7] x6 | 
[V:8] E>CG, G>EC | 
[V:9] C>G,E, E>CG, | 
[V:10] G,3C>G,E, | 
[V:11] G,,6 | 
[V:12] G,6 | 
[V:1] z GG GGG | 
[V:2] z GG GGG | 
[V:3] z dd ddd | 
[V:4] x6 | 
[V:5] d2z z dd | 
[V:6] G2z z GG | 
[V:7] x6 | 
[V:8] D6 | 
[V:9] B,6 | 
[V:10] G,6 | 
[V:11] G,,6 | 
[V:12] G,,3G,3 | 
[V:1] G4z z |]  
[V:2] E4z z |]  
[V:3] c4z z |]  
[V:4] x6 |]  
[V:5] c4z z |]  
[V:6] E4z z |]  
[V:7] x6 |]  
[V:8] C4z z |]  
[V:9] C4z z |]  
[V:10] E,4z z |]  
[V:11] C,4z2 |]  
[V:12] C,4z z |]  

